src/img/standarts-list__clinically.svg

<svg
 xmlns="http://www.w3.org/2000/svg"
 xmlns:xlink="http://www.w3.org/1999/xlink"
 width="86px" height="75px">
<path fill-rule="evenodd"  fill="rgb(132, 171, 49)"
 d="M42.921,59.083 C41.899,57.953 40.791,56.791 39.722,55.669 C37.666,53.518 35.539,51.292 33.869,49.102 C32.355,47.122 32.293,44.616 32.227,41.962 L32.215,41.561 C32.195,38.989 32.187,36.447 32.184,33.969 C32.180,32.016 32.176,30.107 32.164,28.247 L33.826,28.247 C34.377,28.247 34.825,27.803 34.825,27.250 C34.825,26.697 34.377,26.252 33.826,26.252 L16.998,26.252 C16.448,26.252 15.999,26.697 15.999,27.250 C15.999,27.803 16.448,28.247 16.998,28.247 L18.441,28.247 C18.430,30.142 18.426,32.091 18.422,34.090 C18.418,36.530 18.410,39.031 18.391,41.596 C18.519,46.085 17.517,48.845 14.774,51.491 C13.431,52.957 11.754,54.742 10.111,56.491 C9.085,57.583 8.074,58.662 7.126,59.680 C6.311,60.638 5.519,61.457 4.754,62.252 C2.202,64.894 -0.002,67.178 1.359,71.149 C2.300,73.600 4.730,74.930 8.195,74.930 C8.371,74.930 8.546,74.926 8.726,74.922 C10.825,74.930 14.060,74.930 17.762,74.926 L38.485,74.926 C39.413,74.891 40.264,74.902 41.091,74.910 C44.255,74.949 46.998,74.992 49.004,71.671 C49.027,71.633 49.047,71.597 49.062,71.559 C50.881,67.420 48.547,65.007 45.590,61.955 C44.739,61.074 43.853,60.163 42.929,59.079 L42.921,59.083 ZM20.388,41.576 C20.408,39.047 20.412,36.541 20.419,34.093 C20.423,32.094 20.427,30.142 20.443,28.247 L30.170,28.247 C30.182,30.107 30.185,32.016 30.189,33.972 C30.197,36.455 30.201,39.000 30.221,41.595 L30.232,42.013 C30.303,44.869 30.377,47.820 32.285,50.314 C32.909,51.132 33.600,51.947 34.310,52.758 L16.330,52.758 C19.350,49.788 20.536,46.525 20.392,41.576 L20.388,41.576 ZM47.252,70.700 C45.848,72.984 44.154,72.965 41.111,72.918 C40.299,72.911 39.382,72.895 38.438,72.934 L17.759,72.934 C14.060,72.938 10.829,72.934 8.691,72.930 C6.662,73.008 4.072,72.634 3.241,70.471 C2.324,67.801 3.483,66.445 6.194,63.638 C6.943,62.863 7.794,61.982 8.621,61.008 C9.534,60.026 10.549,58.950 11.571,57.859 C12.574,56.791 13.572,55.723 14.505,54.725 C14.552,54.734 14.595,54.753 14.641,54.753 L36.109,54.753 C36.827,55.525 37.552,56.292 38.274,57.048 C39.355,58.179 40.428,59.305 41.415,60.400 C42.363,61.515 43.311,62.489 44.143,63.350 C47.143,66.453 48.435,67.949 47.248,70.708 L47.252,70.700 ZM84.986,15.160 C84.432,15.160 83.987,15.604 83.987,16.157 L83.987,26.252 L77.783,26.252 L77.783,12.537 L78.833,12.537 C79.387,12.537 79.832,12.093 79.832,11.539 C79.832,10.986 79.387,10.541 78.833,10.541 L67.135,10.541 C66.581,10.541 66.137,10.986 66.137,11.539 C66.137,12.093 66.581,12.537 67.135,12.537 L67.990,12.537 L67.990,26.252 L62.785,26.252 L62.785,12.537 L63.835,12.537 C64.389,12.537 64.833,12.093 64.833,11.539 C64.833,10.986 64.389,10.541 63.835,10.541 L52.137,10.541 C51.583,10.541 51.138,10.986 51.138,11.539 C51.138,12.093 51.583,12.537 52.137,12.537 L52.987,12.537 L52.987,26.252 L47.786,26.252 L47.786,12.537 L48.836,12.537 C49.390,12.537 49.835,12.093 49.835,11.539 C49.835,10.986 49.390,10.541 48.836,10.541 L37.135,10.541 C36.584,10.541 36.136,10.986 36.136,11.539 C36.136,12.093 36.584,12.537 37.135,12.537 L37.989,12.537 L37.989,26.252 L37.369,26.252 C36.818,26.252 36.370,26.696 36.370,27.249 C36.370,27.802 36.818,28.247 37.369,28.247 L83.991,28.247 L83.991,31.746 L37.369,31.746 C36.818,31.746 36.370,32.191 36.370,32.745 C36.370,33.298 36.818,33.742 37.369,33.742 L37.989,33.742 L37.989,45.426 C37.989,48.123 40.186,50.321 42.890,50.321 C45.590,50.321 47.790,48.127 47.790,45.426 L47.790,33.742 L52.991,33.742 L52.991,45.426 C52.991,48.123 55.188,50.321 57.892,50.321 C60.592,50.321 62.792,48.127 62.792,45.426 L62.792,33.742 L67.997,33.742 L67.997,45.426 C67.997,48.123 70.194,50.321 72.898,50.321 C75.598,50.321 77.798,48.127 77.798,45.426 L77.798,33.742 L84.002,33.742 L84.002,53.719 L41.781,53.719 C41.231,53.719 40.782,54.164 40.782,54.717 C40.782,55.270 41.231,55.715 41.781,55.715 L84.002,55.715 L84.002,59.214 L47.278,59.214 C46.724,59.214 46.280,59.659 46.280,60.212 C46.280,60.766 46.724,61.210 47.278,61.210 L84.002,61.210 L84.002,62.816 C84.002,63.369 84.447,63.813 85.001,63.813 C85.555,63.813 86.000,63.369 86.000,62.816 L85.984,16.157 C85.984,15.603 85.539,15.159 84.985,15.159 L84.986,15.160 ZM69.983,12.541 L75.785,12.541 L75.785,26.256 L69.983,26.256 L69.983,12.541 ZM54.980,12.541 L60.782,12.541 L60.782,26.256 L54.980,26.256 L54.980,12.541 ZM39.982,12.541 L45.784,12.541 L45.784,26.256 L39.982,26.256 L39.982,12.541 ZM42.885,48.326 C41.285,48.326 39.982,47.024 39.982,45.426 L39.982,38.309 L45.784,38.309 L45.784,45.426 C45.784,47.024 44.480,48.326 42.881,48.326 L42.885,48.326 ZM45.783,36.318 L39.981,36.318 L39.981,33.746 L45.783,33.746 L45.783,36.318 ZM57.883,48.326 C56.283,48.326 54.980,47.024 54.980,45.426 L54.980,41.341 L60.782,41.341 L60.782,45.426 C60.782,47.024 59.478,48.326 57.879,48.326 L57.883,48.326 ZM60.782,39.346 L54.980,39.346 L54.980,33.742 L60.782,33.742 L60.782,39.346 ZM72.881,48.326 C71.281,48.326 69.978,47.024 69.978,45.426 L69.978,44.362 C69.990,44.362 70.001,44.370 70.013,44.370 L75.780,44.370 L75.780,45.426 C75.780,47.024 74.477,48.326 72.877,48.326 L72.881,48.326 ZM75.784,42.375 L70.017,42.375 C70.005,42.375 69.993,42.383 69.982,42.383 L69.982,33.742 L75.784,33.742 L75.784,42.375 ZM21.764,21.933 C23.968,21.933 25.759,20.144 25.759,17.943 C25.759,15.740 23.968,13.952 21.764,13.952 C19.559,13.952 17.768,15.740 17.768,17.943 C17.768,20.144 19.559,21.933 21.764,21.933 ZM21.764,15.947 C22.864,15.947 23.761,16.844 23.761,17.943 C23.761,19.042 22.864,19.938 21.764,19.938 C20.663,19.938 19.766,19.042 19.766,17.943 C19.766,16.844 20.663,15.947 21.764,15.947 ZM29.754,13.952 C31.409,13.952 32.751,12.611 32.751,10.959 C32.751,9.306 31.409,7.965 29.754,7.965 C28.100,7.965 26.758,9.306 26.758,10.959 C26.758,12.611 28.100,13.952 29.754,13.952 ZM29.754,9.961 C30.305,9.961 30.753,10.409 30.753,10.959 C30.753,11.508 30.305,11.956 29.754,11.956 C29.204,11.956 28.756,11.508 28.756,10.959 C28.756,10.409 29.204,9.961 29.754,9.961 ZM21.764,1.484 C21.764,0.658 22.435,-0.013 23.262,-0.013 C24.089,-0.013 24.760,0.658 24.760,1.484 C24.760,2.311 24.089,2.981 23.262,2.981 C22.435,2.981 21.764,2.311 21.764,1.484 Z"/>
</svg>

<svg xmlns="http://www.w3.org/2000/svg" width="86" height="75"><path fill-rule="evenodd" fill="#84AB31" d="M42.92 59.08c-1.02-1.13-2.13-2.29-3.2-3.41a82.15 82.15 0 0 1-5.85-6.57c-1.52-1.98-1.58-4.48-1.64-7.14l-.01-.4-.04-7.6c0-1.94 0-3.85-.02-5.71h1.67a1 1 0 1 0 0-2h-16.83a1 1 0 1 0 0 2h1.44l-.02 5.84-.03 7.5c.13 4.5-.87 7.25-3.62 9.9-1.34 1.47-3.02 3.25-4.66 5a997.1 997.1 0 0 0-2.98 3.19c-.82.96-1.61 1.78-2.38 2.57-2.55 2.64-4.75 4.93-3.4 8.9.95 2.45 3.38 3.78 6.85 3.78h30.28a46.1 46.1 0 0 1 2.61-.02c3.16.04 5.9.08 7.91-3.24a.75.75 0 0 0 .06-.11c1.82-4.14-.51-6.55-3.47-9.6-.85-.89-1.74-1.8-2.66-2.88Zm-22.53-17.5.03-7.49c0-2 0-3.95.02-5.84h9.73l.02 5.72.03 7.63.01.41c.07 2.86.15 5.81 2.05 8.3.63.82 1.32 1.64 2.03 2.45h-17.98c3.02-2.97 4.2-6.23 4.06-11.18Zm26.86 29.12c-1.4 2.28-3.1 2.27-6.14 2.22-.81 0-1.73-.03-2.67.01h-29.75c-2.03.08-4.62-.3-5.45-2.46-.92-2.67.24-4.03 2.95-6.83a54.9 54.9 0 0 0 2.43-2.63l2.95-3.15 2.94-3.13.13.02h21.47l2.16 2.3c1.08 1.13 2.16 2.26 3.14 3.35.95 1.12 1.9 2.09 2.73 2.95 3 3.1 4.3 4.6 3.1 7.36l.01-.01Zm37.74-55.54a1 1 0 0 0-1 1v10.1h-6.2v-13.72h1.04a1 1 0 1 0 0-2h-11.7a1 1 0 0 0-1 1 1 1 0 0 0 1 1h.86v13.71h-5.2v-13.71h1.05a1 1 0 0 0 1-1 1 1 0 0 0-1-1h-11.7a1 1 0 1 0 0 2h.85v13.71h-5.2v-13.71h1.05a1 1 0 1 0 0-2h-11.7a1 1 0 1 0 0 2h.85v13.71h-.62a1 1 0 1 0 0 2h46.62v3.5h-46.62a1 1 0 1 0 0 2h.62v11.68a4.9 4.9 0 0 0 9.8 0v-11.69h5.2v11.69a4.9 4.9 0 0 0 9.8 0v-11.69h5.2v11.69a4.9 4.9 0 0 0 9.8 0v-11.69h6.21v19.98h-42.22a1 1 0 1 0 0 2h42.22v3.5h-36.72a1 1 0 0 0-1 1 1 1 0 0 0 1 .99h36.72v1.6a1 1 0 0 0 1 1 1 1 0 0 0 1-1l-.02-46.65a1 1 0 0 0-1-1Zm-15-2.62h5.8v13.72h-5.8v-13.72Zm-15.01 0h5.8v13.72h-5.8v-13.72Zm-15 0h5.8v13.72h-5.8v-13.72Zm2.9 35.79a2.9 2.9 0 0 1-2.9-2.9v-7.12h5.8v7.12c0 1.6-1.3 2.9-2.9 2.9Zm2.9-12.01h-5.8v-2.57h5.8v2.57Zm12.1 12a2.9 2.9 0 0 1-2.9-2.9v-4.08h5.8v4.09c0 1.6-1.3 2.9-2.9 2.9Zm2.9-8.97h-5.8v-5.6h5.8v5.6Zm12.1 8.98a2.9 2.9 0 0 1-2.9-2.9v-1.07l.03.01h5.77v1.06c0 1.6-1.3 2.9-2.9 2.9Zm2.9-5.95h-5.8v-8.64h5.8v8.63Zm-54.02-20.45a4 4 0 1 0 0-7.99 4 4 0 0 0 0 8Zm0-5.98a2 2 0 1 1 0 3.98 2 2 0 0 1 0-3.98Zm8-2a3 3 0 1 0 0-5.99 3 3 0 0 0 0 6Zm0-3.99a1 1 0 1 1 0 2 1 1 0 0 1 0-2Zm-8-8.48a1.5 1.5 0 1 1 3 0 1.5 1.5 0 0 1-3 0Z"/></svg>
